X: 24249
T: Lord Rossmore's Tally-Ho In The Morning
R: jig
M: 6/8
K: Gdorian
E/F/|:DGG GFG|ABA f2 a/g/|fed dcB|ABG FEF|
DGG GFG|ABA fef|{ef}g2d cBA|1 G3 G2E/F/:|2 G3 G2d||
|:geg gbg|age f2 a/g/|fed dcB|ABG FEF|
DGG GFG|ABA fef|{ef}g2d cBA|1 G3 G2d:|2 G3 G2E/F/||

